X:612
T: "Die Spinnerinnen"
N: Z1292
O: Europa, Mitteleuropa, Deutschland, Niederrhein
R: Handwerker -, Bauern - Lied
M: 2/4
L: 1/16
K: C
C3DC2G,2 | A,2F,2G,2G,2 |
C3DC2G,2 | A,2F,2G,2G,2 |
C2C2B,2C2 | F2E2D4 |
C2E2D2C2 | B,2A,2G,4 |
E,3F,G,2G,2 | A,2B,2C4 |
F2D2E2C2 | EDCB,C4 |
C3DE2E2 | F2A2G4 |
F2D2E2C2 | D2B,2C4

@@@ Tune index: 10370
